X:138
T:Colonel Rodgers' Favourite
R:reel
M:4/4
L:1/8
K:Gmaj
|:GBdB cAFA|GABc dBcA|GBdB cAFA|GBAF GFED|
|GBdB cAFA|GABc defg|afge fdcA|1GBAF G2 (3DEF:|2 GBAF G2 ag||
|:fdde fdcA|dggf gbag|fdde fdcA|GBAF Geag|
|fdde fdcA|dggf gbag|fdde fdcA|1 GBAF G2 ag:|2 GBAF G2 (3DEF||

